X:1
%
T:Miss in her own Hair
M:C|
L:1/8
R:Country Dance Tune
B:John Walsh – Caledonian Country Dances vol. II  (c. 1737, No. 265, p. 5)
Z:AK/Fiddler’s Companion
K:A
(3ABc TB2 (3ABc TB2|A a2g Tf2e2|(f/e/d/e/) fa (e/d/c/d/) ea|db ca Tc2B2|
(3ABc TB2 (3ABc TB2|A a2g Tf2e2|(f/e/d/e/) fa (e/d/c/d/) ea|fdBe {d}c2 BA||
|:Beed Tc2B2|Beed Tc2B2|(3cBA (3cde (3fed (3fga|(3gfe (3gab a2 A2:|]

